X:55
T:Bonaparte Crossing the Rhine
M:4/4
R:reel
Q:1/2=120
L:1/4
K:D
FG|"D"A>BAF|"A"A2de|"D"f>efa|"D"d3 d/2c/2|"G"B>cdB|"D"AFDF|"E7"E2E>F|"A7"E2FG|
"D"A>BAF|"A"A2de|"D"f>efa|"D"d3 d/2c/2|"G"B>cdB|"A"AFEF|"D"D2D>E|"D"D2||
de|"D"f>efg|"A"a2aA|"G"B>ABc|"D"d3A|"G"B>cdB|"D"AFDF|"E7"E2E>F|"A7"E2de|
"D"f>efg|"A"a2aA|"G"B>ABc|"D"d3A|"G"B>cdB|"A"AFEF|"D"D2D>E|"D"D2||
